icons/BatteryHorizontal_filled.svg

<svg width="24" height="24" viewBox="0 0 24 24" fill="none" xmlns="http://www.w3.org/2000/svg">
<path fill-rule="evenodd" clip-rule="evenodd" d="M21.5,14.25c0,0.4142 -0.3358,0.75 -0.75,0.75c-0.4142,0 -0.75,-0.3358 -0.75,-0.75v-4.5c0,-0.41421 0.3358,-0.75 0.75,-0.75c0.4142,0 0.75,0.33579 0.75,0.75zM16,6.25c1.5188,0 2.75,1.23122 2.75,2.75v6c0,1.5188 -1.2312,2.75 -2.75,2.75h-10.5c-1.51878,0 -2.75,-1.2312 -2.75,-2.75v-6c0,-1.51878 1.23122,-2.75 2.75,-2.75zM14.5,9.75v4.5c0,0.4142 0.3358,0.75 0.75,0.75c0.4142,0 0.75,-0.3358 0.75,-0.75v-4.5c0,-0.41421 -0.3358,-0.75 -0.75,-0.75c-0.4142,0 -0.75,0.33579 -0.75,0.75zM13,9.75c0,-0.41421 -0.3358,-0.75 -0.75,-0.75c-0.4142,0 -0.75,0.33579 -0.75,0.75v4.5c0,0.4142 0.3358,0.75 0.75,0.75c0.4142,0 0.75,-0.3358 0.75,-0.75zM5.5,9.75v4.5c0,0.4142 0.33579,0.75 0.75,0.75c0.41421,0 0.75,-0.3358 0.75,-0.75v-4.5c0,-0.41421 -0.33579,-0.75 -0.75,-0.75c-0.41421,0 -0.75,0.33579 -0.75,0.75zM10,9.75c0,-0.41421 -0.33579,-0.75 -0.75,-0.75c-0.41421,0 -0.75,0.33579 -0.75,0.75v4.5c0,0.4142 0.33579,0.75 0.75,0.75c0.41421,0 0.75,-0.3358 0.75,-0.75z" fill="#002B51"/>
</svg>

<svg width="24" height="24" viewBox="0 0 24 24" fill="none" xmlns="http://www.w3.org/2000/svg">
<path fill-rule="evenodd" clip-rule="evenodd" d="M21.5 9.75C21.5 9.33579 21.1642 9 20.75 9C20.3358 9 20 9.33579 20 9.75V14.25C20 14.6642 20.3358 15 20.75 15C21.1642 15 21.5 14.6642 21.5 14.25V9.75ZM16 6.25C17.5188 6.25 18.75 7.48122 18.75 9V15C18.75 16.5188 17.5188 17.75 16 17.75H5.5C3.98122 17.75 2.75 16.5188 2.75 15V9C2.75 7.48122 3.98122 6.25 5.5 6.25H16ZM15.25 9C15.6642 9 16 9.33579 16 9.75V14.25C16 14.6642 15.6642 15 15.25 15C14.8358 15 14.5 14.6642 14.5 14.25V9.75C14.5 9.33579 14.8358 9 15.25 9ZM13 9.75C13 9.33579 12.6642 9 12.25 9C11.8358 9 11.5 9.33579 11.5 9.75V14.25C11.5 14.6642 11.8358 15 12.25 15C12.6642 15 13 14.6642 13 14.25V9.75ZM6.25 9C6.66421 9 7 9.33579 7 9.75V14.25C7 14.6642 6.66421 15 6.25 15C5.83579 15 5.5 14.6642 5.5 14.25V9.75C5.5 9.33579 5.83579 9 6.25 9ZM10 9.75C10 9.33579 9.66421 9 9.25 9C8.83579 9 8.5 9.33579 8.5 9.75V14.25C8.5 14.6642 8.83579 15 9.25 15C9.66421 15 10 14.6642 10 14.25V9.75Z" fill="#002B51"/>
</svg>
